X:1
T:Kreuzpolka
C:traditionell
A:aus St. Margarethen im Burgenland
%%textfont Helvetica-Narrow 10pt
%%begintext align
S:noten-material (lose kopien) von Elisabeth und Christoph Huspeka
%%endtext
Z:abc transcription Simon Wascher
M:2/4
L:1/8
K:F
AA BA | G2 c2 | GG AG | F2 c2 |
FF GA | BB E2 | cc BB | AA F2 |
AA BA | G2 c2 | GG AG |
F2 c2 |\
FF GA | Bc d2 | cA BG | F2 F2 :|
|:\
Ac Ac | Bd d2 | Bd Bd | Ac c2 |
fe dc | cB B2 | ed cB | Ad c2 |
Ac Ac | Bd d2 | Bd Bd | Ac c2 |
fe fg | ag fg | aa gg | f2 f2 :|
%%wordsfont Times-Italic 11pt
W:aus Simon Waschers TradArchiv
